X: 22
T: Laihama shang shu
L: 1/16
M: 2/4
K: D
B A B dE4 [I:setbarnb 1]| 
B A B de4 | 
d B2 A A2 A B | 
e8 | 
B A B dE4 | 
B A B de4 | 
d B2 A A2 A B | 
A8 |]

@@@ Tune index: 8896
